X:283
T:A Highland
M:4/4
L:1/8
R:highland
Z:Michael Abraham Shulman
N:Learned from Kira Ott
K:G
G2GA B<ddB|c2Bc AFDF|G2GA B<ddf|(3efg fa gedB|
G2GA B<ddB|c2Bc AFDF|G2GA B<ddf|(3efg fa g^def||
gabg agfd|efge d<BBf|gabg agfd|(3efg fa g^def|
gabg agfd|efge dcBA|G2GA B<ddf|(3efg fa gedB||
